X: 102
T: Martin Wynne's #1
R:reel
C:Martin Wynne (1914-98)
M:C|
K:D
"D"AF~F2 "A7"GE~E2|"D"FBAF EFDB,|"D"A,B,DE ~F3B|"A"ABde "D"fedB|
"D"AF~F2 "A7"GE~E2|"D"FBAF EFDB,|"D"A,B,DE ~F3B|1 "A"ABde "D"fddB:|2"A" ABde "D"fede||
|: "D"faaf "G"gfeg|"D"fedf "A"edBc|"D"dBAF DEFB|"A"ABde "D"fede|
"D"faaf "G"gfeg|"D"fedf "A"edBc|"D"dBAF DEFB|1"A" ABde "D"fdde:|2"A" ABde "D"fedB||


